X:1
T:44
T:Hugo Distler
T:Nikolaus Hermann (1480 - 1561)
T:44.  The Sun Is Shining, Clear and Bright Die helle Sonn' leucht't jetzt herfür Matins
C:Hugo Distler
Z:Nikolaus Hermann
Z:(1480 - 1561)
%%score [ 1 ( 2 3 ) 4 ]
L:1/8
Q:1/4=108
M:2/2
K:F
V:1 treble nm="Soprano"
V:2 treble nm="Alto 1"
V:3 treble 
V:4 treble nm="Alto 2"
V:1
 F2 | A4 B2 c2- | c2 f3 e d2 | !breath!c4 c4 | c2 =B2 (c3 d) | e2 f2 e4 | f4 z2 f2 | f2 e2 d4 | %8
w: 1.  The|sun is shin-|* ing, clear and|bright, and|joy- ous- ly _|we greet the|light. Praise|God who brought|
w: 3.  May|what we do|_ suc- ceed this|day, as|each shall choose _|to spend the|day, that|each one's work|
 A2 c4 B2 | !breath!A2 d2 c2 B2 | A2 G2 (F4- | F2 ED) E4 | F6!fine! ||[K:C][M:2/2] C2 E4 F2 | %14
w: us through this|night and kept us|from the Dev-|* * * il's|might.|2.  Lord Christ, pro-|
w: and in- dus-|try to You may|praise and hon-|* * * or|be.||
 G2 c3 c B2 | !breath!GGG^F G2 A2 | (c3 B2 A) B2 | !breath!c2 c2 cB (A2 | G3 A GF) E2 | %19
w: tect us through the|day, by Your good grace, from|sin _ _ and|shame. Your an- gel host|_ _ _ _ be|
w: |||||
 F2 F2 !breath!E E2 E | (G3 A G2) E2 | E2 D4 D2 | C8!D.C.! |] %23
w: at our side watch to|keep, _ _ pro-|tect and to|guide.|
w: ||||
V:2
 z2 | z4 z2 C2 | E2 F2 G4 | (c3 =B) A2 B2 | !breath!G2 G3 G F2 | G2 A2 c2 d2 | %6
w: |1.  The|sun is shin-|ing, _ clear and|bright, and joy- ous-|ly we greet the|
w: |3.  May|what we do|suc- * ceed this|day, as each shall|choose to spend the|
 !breath!c2 c2 c3 =B | A2 (EF) G4 | F2 !breath!E4 G2 | G4 G2 F2 | F2 E4 D2 | C8- | C6 || %13
w: light. Praise God who|brought us _ through|this night and|kept us from|the Dev- il's|might.|_|
w: day, that each one's|work and _ in-|dus- try to|You may praise|and hon- or|be.|_|
[K:C][M:2/2] C4 B,2 A,2 | D2 E2 C2 D2 | !breath!G2 B2 G2 F2 | EE (D3 C) D2 | C4 F2 F2- | %18
w: 2.  Lord Christ, pro-|tect us through the|day, by Your good|grace, from sin _ and|shame. Your an-|
w: |||||
 FF E2 D2 C2- | C2 B,2 !breath!C2 c2- | cd c2 B2 A2 | (G4 F2) E2 | G8 |] %23
w: * gel host be at|_ our side watch|_ to keep, pro- tect|and _ to|guide.|
w: |||||
V:3
 x2 | x8 | x8 | x8 | x8 | x8 | x8 | x8 | x8 | x8 | x8 | x8 | x6 ||[K:C][M:2/2] x8 | x8 | x8 | x8 | %17
 x8 | x8 | x8 | x8 | x6 E2 | E8 |] %23
V:4
 z2 | z4 z2 C2 | C2 D2 C4 | F2 E4 D2 | !breath!C2 G3 G A2 | E2 D2 C2 B,2 | A,4 z2 A2 | %7
w: |1.  The|sun is shin-|ing, clear and|bright, and joy- ous-|ly we greet the|light. Praise|
w: |3.  May|what we do|suc- ceed this|day, as each shall|choose to spend the|day, that|
 F2 (G3 F) E2 | D2 (A,2 B,2) C2 | D8 | z2 C2 C2 B,2 | A,A, G,4 A,2 | F,6 ||[K:C][M:2/2] z8 | z8 | %15
w: God who _ brought|us through _ this|night|and kept us|from the Dev- il's|might.|||
w: each one's _ work|and in- * dus-|try|to You may|praise and hon- or|be.|||
 z8 | z8 | z8 | z8 | z8 | z8 | z8 | z8 |] %23
w: ||||||||
w: ||||||||

